TH2/box1.svg

<svg xmlns="http://www.w3.org/2000/svg" viewBox="0 0 1200 800" preserveAspectRatio="none" width="1200" height="800">
 <path d="M0,0H1200V800H0Z" style="fill: white;"></path>
 <g>
  <g transform="translate(120,80)">
   <path d="M0,0H960V640H0Z" style="fill: white; stroke: black; stroke-width: 1;"></path>
   <svg x="0" y="0" overflow="hidden" width="960" height="640" viewBox="0 0 960 640">
    <g>
     <path d="M114,503v62h92v-62zM68,258v123h185v-123zM80,53v107h160v-107zM415,490v87h131v-87zM320,213v213h320v-213zM367,31v151h226v-151zM708,472v123h185v-123zM687,245v151h226v-151zM767,85v44h65v-44z" style="fill: #dfbb88;"></path>
     <path d="M114,503h92l-9,6h-74v50l-9,6zM68,258h185l-19,12h-147v99l-19,12zM80,53h160l-16,11h-128v85l-16,11zM415,490h131l-13,9h-105v69l-13,9zM320,213h320l-32,21h-256v171l-32,21zM593,182v-151l-23,15v121h-180l-23,15zM893,595v-123l-19,12v99h-147l-19,12zM687,245h226l-23,15h-180v121l-23,15zM767,85h65l-7,4h-51v36l-7,4z" style="fill: #ffe0a3;"></path>
     <path d="M206,565v-62l-9,6v50h-74l-9,6zM253,381v-123l-19,12v99h-147l-19,12zM240,160v-107l-16,11v85h-128l-16,11zM546,577v-87l-13,9v69h-105l-13,9zM640,426v-213l-32,21v171h-256l-32,21zM367,31h226l-23,15h-180v121l-23,15zM708,472h185l-19,12h-147v99l-19,12zM913,396v-151l-23,15v121h-180l-23,15zM832,129v-44l-7,4v36h-51l-7,4z" style="fill: #bb9c72;"></path>
    </g>
   </svg>
   <g>
    <g transform="translate(0,640)">
     <path d="M0,0h960M0,-24v24m32,-12v12m32,-12v12m32,-12v12m32,-12v12m32,-24v24m32,-12v12m32,-12v12m32,-12v12m32,-12v12m32,-24v24m32,-12v12m32,-12v12m32,-12v12m32,-12v12m32,-24v24m32,-12v12m32,-12v12m32,-12v12m32,-12v12m32,-24v24m32,-12v12m32,-12v12m32,-12v12m32,-12v12m32,-24v24m32,-12v12m32,-12v12m32,-12v12m32,-12v12m32,-24v24" style="stroke: black; stroke-width: 1;"></path>
     <g font-family="Arial" font-size="28" space="preserve" fill="black" text-anchor="middle">
      <text dy=".8em" transform="translate(0,6)">
       0
      </text>
      <text dy=".8em" transform="translate(160,6)">
       0.5
      </text>
      <text dy=".8em" transform="translate(320,6)">
       1
      </text>
      <text dy=".8em" transform="translate(480,6)">
       1.5
      </text>
      <text dy=".8em" transform="translate(640,6)">
       2
      </text>
      <text dy=".8em" transform="translate(800,6)">
       2.5
      </text>
      <text dy=".8em" transform="translate(960,6)">
       3
      </text>
     </g>
    </g>
    <g>
     <path d="M0,0v640M36,640h-36m18,-21h-18m18,-22h-18m18,-21h-18m18,-21h-18m36,-22h-36m18,-21h-18m18,-21h-18m18,-22h-18m18,-21h-18m36,-21h-36m18,-22h-18m18,-21h-18m18,-21h-18m18,-22h-18m36,-21h-36m18,-21h-18m18,-22h-18m18,-21h-18m18,-21h-18m36,-22h-36m18,-21h-18m18,-21h-18m18,-22h-18m18,-21h-18m36,-21h-36m18,-22h-18m18,-21h-18m18,-21h-18m18,-22h-18m36,-21h-36" style="stroke: black; stroke-width: 1;"></path>
     <g font-family="Arial" font-size="28" space="preserve" fill="black" text-anchor="end">
      <text dy=".4em" transform="translate(-4,640)">
       0
      </text>
      <text dy=".4em" transform="translate(-4,533)">
       0.5
      </text>
      <text dy=".4em" transform="translate(-4,427)">
       1
      </text>
      <text dy=".4em" transform="translate(-4,320)">
       1.5
      </text>
      <text dy=".4em" transform="translate(-4,213)">
       2
      </text>
      <text dy=".4em" transform="translate(-4,107)">
       2.5
      </text>
      <text dy=".4em" transform="translate(-4)">
       3
      </text>
     </g>
    </g>
   </g>
  </g>
  <g transform="translate(120,4)" font-family="Arial" font-size="40" space="preserve">
   <text fill="black" text-anchor="middle" dy=".8em" transform="translate(480)">
    Option BOX1 example
   </text>
  </g>
  <g transform="translate(936,52)" font-family="Arial" font-size="20" space="preserve" fill="black">
   <path d="M0,0H240V212H0Z" style="fill: white; stroke: black; stroke-width: 1;"></path>
   <text text-anchor="middle" dy=".4em" transform="translate(120,18)">
    hbox1
   </text>
   <text text-anchor="start" dy=".4em" transform="translate(12,53)">
    Entries
   </text>
   <text text-anchor="end" dy=".4em" transform="translate(228,53)">
    9
   </text>
   <text text-anchor="start" dy=".4em" transform="translate(12,88)">
    Mean x
   </text>
   <text text-anchor="end" dy=".4em" transform="translate(228,88)">
    1.203
   </text>
   <text text-anchor="start" dy=".4em" transform="translate(12,124)">
    Mean y
   </text>
   <text text-anchor="end" dy=".4em" transform="translate(228,124)">
    1.419
   </text>
   <text text-anchor="start" dy=".4em" transform="translate(12,159)">
    Std Dev x
   </text>
   <text text-anchor="end" dy=".4em" transform="translate(228,159)">
    0.6922
   </text>
   <text text-anchor="start" dy=".4em" transform="translate(12,194)">
    Std Dev y
   </text>
   <text text-anchor="end" dy=".4em" transform="translate(228,194)">
    0.4425
   </text>
   <path d="M0,35h240" style="stroke: black; stroke-width: 1;"></path>
  </g>
 </g>
</svg>

<svg xmlns="http://www.w3.org/2000/svg" viewBox="0 0 1200 800" preserveAspectRatio="none" width="1200" height="800">
 <path d="M0,0H1200V800H0Z" style="fill: white;"></path>
 <g>
  <g transform="translate(120,80)">
   <path d="M0,0H960V640H0Z" style="fill: white; stroke: black; stroke-width: 1;"></path>
   <svg x="0" y="0" overflow="hidden" width="960" height="640" viewBox="0 0 960 640">
    <g>
     <path d="M114,503v62h92v-62zM68,258v123h185v-123zM80,53v107h160v-107zM415,490v87h131v-87zM320,213v213h320v-213zM367,31v151h226v-151zM708,472v123h185v-123zM687,245v151h226v-151zM767,85v44h65v-44z" style="fill: #dfbb88;"></path>
     <path d="M114,503h92l-9,6h-74v50l-9,6zM68,258h185l-19,12h-147v99l-19,12zM80,53h160l-16,11h-128v85l-16,11zM415,490h131l-13,9h-105v69l-13,9zM320,213h320l-32,21h-256v171l-32,21zM593,182v-151l-23,15v121h-180l-23,15zM893,595v-123l-19,12v99h-147l-19,12zM687,245h226l-23,15h-180v121l-23,15zM767,85h65l-7,4h-51v36l-7,4z" style="fill: #ffe0a3;"></path>
     <path d="M206,565v-62l-9,6v50h-74l-9,6zM253,381v-123l-19,12v99h-147l-19,12zM240,160v-107l-16,11v85h-128l-16,11zM546,577v-87l-13,9v69h-105l-13,9zM640,426v-213l-32,21v171h-256l-32,21zM367,31h226l-23,15h-180v121l-23,15zM708,472h185l-19,12h-147v99l-19,12zM913,396v-151l-23,15v121h-180l-23,15zM832,129v-44l-7,4v36h-51l-7,4z" style="fill: #bb9c72;"></path>
    </g>
   </svg>
   <g>
    <g transform="translate(0,640)">
     <path d="M0,0h960M0,-24V0M32,-12V0M64,-12V0M96,-12V0M128,-12V0M160,-24V0M192,-12V0M224,-12V0M256,-12V0M288,-12V0M320,-24V0M352,-12V0M384,-12V0M416,-12V0M448,-12V0M480,-24V0M512,-12V0M544,-12V0M576,-12V0M608,-12V0M640,-24V0M672,-12V0M704,-12V0M736,-12V0M768,-12V0M800,-24V0M832,-12V0M864,-12V0M896,-12V0M928,-12V0M960,-24V0" style="stroke: black; stroke-width: 1;"></path>
     <g font-family="Arial" font-size="28" space="preserve" fill="black" text-anchor="middle">
      <text dy=".8em" transform="translate(0,6)">
       0
      </text>
      <text dy=".8em" transform="translate(160,6)">
       0.5
      </text>
      <text dy=".8em" transform="translate(320,6)">
       1
      </text>
      <text dy=".8em" transform="translate(480,6)">
       1.5
      </text>
      <text dy=".8em" transform="translate(640,6)">
       2
      </text>
      <text dy=".8em" transform="translate(800,6)">
       2.5
      </text>
      <text dy=".8em" transform="translate(960,6)">
       3
      </text>
     </g>
    </g>
    <g>
     <path d="M0,0v640M36,640H0M18,619H0M18,597H0M18,576H0M18,555H0M36,533H0M18,512H0M18,491H0M18,469H0M18,448H0M36,427H0M18,405H0M18,384H0M18,363H0M18,341H0M36,320H0M18,299H0M18,277H0M18,256H0M18,235H0M36,213H0M18,192H0M18,171H0M18,149H0M18,128H0M36,107H0M18,85H0M18,64H0M18,43H0M18,21H0M36,0H0" style="stroke: black; stroke-width: 1;"></path>
     <g font-family="Arial" font-size="28" space="preserve" fill="black" text-anchor="end">
      <text dy=".4em" transform="translate(-4,640)">
       0
      </text>
      <text dy=".4em" transform="translate(-4,533)">
       0.5
      </text>
      <text dy=".4em" transform="translate(-4,427)">
       1
      </text>
      <text dy=".4em" transform="translate(-4,320)">
       1.5
      </text>
      <text dy=".4em" transform="translate(-4,213)">
       2
      </text>
      <text dy=".4em" transform="translate(-4,107)">
       2.5
      </text>
      <text dy=".4em" transform="translate(-4)">
       3
      </text>
     </g>
    </g>
   </g>
  </g>
  <g transform="translate(120,4)" font-family="Arial" font-size="40" space="preserve">
   <text fill="black" text-anchor="middle" dy=".8em" transform="translate(480)">
    Option BOX1 example
   </text>
  </g>
  <g transform="translate(936,52)" font-family="Arial" font-size="20" space="preserve" fill="black">
   <path d="M0,0H240V212H0Z" style="fill: white; stroke: black; stroke-width: 1;"></path>
   <text text-anchor="middle" dy=".4em" transform="translate(120,18)">
    hbox1
   </text>
   <text text-anchor="start" dy=".4em" transform="translate(12,53)">
    Entries
   </text>
   <text text-anchor="end" dy=".4em" transform="translate(228,53)">
    9
   </text>
   <text text-anchor="start" dy=".4em" transform="translate(12,88)">
    Mean x
   </text>
   <text text-anchor="end" dy=".4em" transform="translate(228,88)">
    1.203
   </text>
   <text text-anchor="start" dy=".4em" transform="translate(12,124)">
    Mean y
   </text>
   <text text-anchor="end" dy=".4em" transform="translate(228,124)">
    1.419
   </text>
   <text text-anchor="start" dy=".4em" transform="translate(12,159)">
    Std Dev x
   </text>
   <text text-anchor="end" dy=".4em" transform="translate(228,159)">
    0.6922
   </text>
   <text text-anchor="start" dy=".4em" transform="translate(12,194)">
    Std Dev y
   </text>
   <text text-anchor="end" dy=".4em" transform="translate(228,194)">
    0.4425
   </text>
   <path d="M0,35h240" style="stroke: black; stroke-width: 1;"></path>
  </g>
 </g>
</svg>
